lib/healthicons/icons/solid/objects/money_bag.svg

<svg fill="none" height="48" viewBox="0 0 48 48" width="48" xmlns="http://www.w3.org/2000/svg"><path clip-rule="evenodd" d="m24.039 6c-4.5166 0-8.6324 1.49171-11.0668 2.71108-.2194.10987-.4251.21754-.6162.3217-.3782.20612-.6993.39853-.956.56722l2.7699 4.0776 1.3037.5191c5.0964 2.5713 11.9306 2.5713 17.027 0l1.4804-.7681 2.619-3.8286c-.3838-.25587-.9146-.56629-1.5677-.89638-.0398-.02011-.0801-.04031-.1208-.06056-2.4239-1.20609-6.4397-2.64306-10.8725-2.64306zm-6.4423 4.6162c-.9969-.184-1.9763-.4376-2.9009-.72866 2.2813-1.013 5.6811-2.08754 9.3432-2.08754 2.5373 0 4.9364.51593 6.9207 1.16919-2.3254.32827-4.8069.8824-7.1709 1.56621-1.86.5381-4.0342.4789-6.1921.0808zm15.9599 5.0638-.2452.1237c-5.6063 2.8287-13.0423 2.8287-18.6486 0l-.233-.1176c-8.42163 9.2413-14.851866 26.311 9.6092 26.311 24.461 0 17.874-17.3886 9.5176-26.3171zm-10.5566 8.32c-1.1046 0-2 .8954-2 2s.8954 2 2 2zm2-2v-1h-2v1c-2.2091 0-4 1.7909-4 4s1.7909 4 4 4v4c-.8693 0-1.6114-.5551-1.8865-1.3332-.184-.5208-.7553-.7937-1.276-.6096-.5208.184-.7937.7553-.6096 1.276.5486 1.5523 2.0289 2.6668 3.7721 2.6668v1h2v-1c2.2091 0 4-1.7909 4-4s-1.7909-4-4-4v-4c.8693 0 1.6114.5551 1.8865 1.3332.184.5208.7553.7937 1.276.6096.5208-.184.7937-.7553.6096-1.276-.5486-1.5523-2.0289-2.6668-3.7721-2.6668zm0 8v4c1.1046 0 2-.8954 2-2s-.8954-2-2-2z" fill="#333" fill-rule="evenodd"/></svg>

<svg width="48" height="48" viewBox="0 0 48 48" fill="none" xmlns="http://www.w3.org/2000/svg">
<path fill-rule="evenodd" clip-rule="evenodd" d="M24.039 6C19.5224 6 15.4066 7.49171 12.9722 8.71108C12.7528 8.82095 12.5471 8.92862 12.356 9.03278C11.9778 9.2389 11.6567 9.43131 11.4 9.6L14.1699 13.6776L15.4736 14.1967C20.57 16.768 27.4042 16.768 32.5006 14.1967L33.981 13.4286L36.6 9.6C36.2162 9.34413 35.6854 9.03371 35.0323 8.70362C34.9925 8.68351 34.9522 8.66331 34.9115 8.64306C32.4876 7.43697 28.4718 6 24.039 6ZM17.5967 10.6162C16.5998 10.4322 15.6204 10.1786 14.6958 9.88754C16.9771 8.87454 20.3769 7.8 24.039 7.8C26.5763 7.8 28.9754 8.31593 30.9597 8.96919C28.6343 9.29746 26.1528 9.85159 23.7888 10.5354C21.9288 11.0735 19.7546 11.0143 17.5967 10.6162ZM33.5566 15.68L33.3114 15.8037C27.7051 18.6324 20.2691 18.6324 14.6628 15.8037L14.4298 15.6861C6.00817 24.9274 -0.422066 41.9971 24.039 41.9971C48.5 41.9971 41.913 24.6085 33.5566 15.68ZM23 24C21.8954 24 21 24.8954 21 26C21 27.1046 21.8954 28 23 28V24ZM25 22V21H23V22C20.7909 22 19 23.7909 19 26C19 28.2091 20.7909 30 23 30V34C22.1307 34 21.3886 33.4449 21.1135 32.6668C20.9295 32.146 20.3582 31.8731 19.8375 32.0572C19.3167 32.2412 19.0438 32.8125 19.2279 33.3332C19.7765 34.8855 21.2568 36 23 36V37H25V36C27.2091 36 29 34.2091 29 32C29 29.7909 27.2091 28 25 28V24C25.8693 24 26.6114 24.5551 26.8865 25.3332C27.0705 25.854 27.6418 26.1269 28.1625 25.9428C28.6833 25.7588 28.9562 25.1875 28.7721 24.6668C28.2235 23.1145 26.7432 22 25 22ZM25 30V34C26.1046 34 27 33.1046 27 32C27 30.8954 26.1046 30 25 30Z" fill="#333333"/>
</svg>
